src/img/telegram-icon.svg

<svg width="22" height="17" viewBox="0 0 22 17" fill="none" xmlns="http://www.w3.org/2000/svg">
<path fill-rule="evenodd" clip-rule="evenodd" d="M8.61862 11.2189L16.7717 16.7684C17.7021 17.2414 18.3736 16.9965 18.6053 15.9726L21.924 1.56445C22.2638 0.30941 21.4048 -0.259816 20.5147 0.112461L1.0272 7.03535C-0.303004 7.5269 -0.295249 8.21061 0.784733 8.51526L5.78567 9.95328L17.3634 3.22393C17.9099 2.91858 18.4116 3.08274 17.9998 3.41939" fill="#575757"/>
</svg>

<svg width="22" height="17" fill="none" xmlns="http://www.w3.org/2000/svg"><path fill-rule="evenodd" clip-rule="evenodd" d="M8.619 11.219l8.153 5.55c.93.472 1.602.228 1.833-.796l3.319-14.409c.34-1.255-.52-1.824-1.41-1.452L1.028 7.035c-1.33.492-1.322 1.176-.242 1.48l5 1.438 11.578-6.73c.547-.304 1.049-.14.637.196" fill="#575757"/></svg>
